images/logos/ocado-w.svg

<svg fill="none" height="138" viewBox="0 0 159 138" width="159" xmlns="http://www.w3.org/2000/svg"><g fill="#fff"><path d="m115.302 0c5.354 0 9.839 4.33387 9.695 9.82343v80.17657h-80.1581c-5.4982 0-9.8389-4.4783-9.8389-9.8234v-70.35317c0-5.48956 4.4854-9.82343 9.8389-9.82343zm-35.2301 13c-17.1183 0-31.0719 13.9677-31.0719 31.1363 0 17.7505 13.8097 31.8637 30.9281 31.8637 17.1183 0 31.0719-13.9677 31.0719-31.2818 0-4.0739-1.295-9.4572-1.295-8.1478 0 11.6398-10.6447 21.097-22.0089 19.4966-8.6311-1.164-18.2692-9.1663-16.543-21.8245 1.7262-12.5127 12.5151-17.4596 20.2831-16.4411 12.5148 1.7459 15.1048 11.3487 11.3638 15.8591-3.7397 5.2379-11.5077 2.1825-11.5077-3.7829 0-3.3464 2.1578-4.8014 2.4455-5.0924-6.3295-1.8914-12.9466 3.2009-13.8097 9.8938-1.007 7.2748 4.3155 13.0947 10.3573 13.8222 11.0766 1.6004 17.4056-7.4204 17.4056-15.4227 0-9.4573-9.9253-20.0785-27.6191-20.0785z"/><path d="m144.112 109.258c-8.384 0-14.888 6.199-14.888 14.371s6.504 14.371 14.888 14.371c8.383 0 14.888-6.199 14.888-14.371-.145-8.172-6.649-14.371-14.888-14.371zm0 4.931c5.348 0 9.54 4.227 9.54 9.44 0 5.072-4.192 9.44-9.54 9.44s-9.54-4.368-9.54-9.44c0-5.213 4.192-9.44 9.54-9.44zm-68.8038 18.88c-5.3482 0-9.54-4.368-9.54-9.44 0-5.213 4.1918-9.44 9.54-9.44s9.54 4.227 9.54 9.44c0 5.072-4.1918 9.44-9.54 9.44zm9.54-23.107v3.1h-.1446c-2.3127-2.254-5.7818-3.804-9.54-3.804-8.3836 0-14.8881 6.199-14.8881 14.371s6.5045 14.371 14.8881 14.371c3.6137 0 7.2273-1.55 9.3955-3.945h.1445v2.959h5.3482v-27.052zm24.8618 23.107c-5.348 0-9.54-4.368-9.54-9.44 0-5.213 4.192-9.44 9.54-9.44s9.54 4.227 9.54 9.44c0 5.072-4.192 9.44-9.54 9.44zm9.395-36.069v16.062h-.144c-2.168-2.395-5.637-3.945-9.396-3.945-8.383 0-14.8877 6.199-14.8877 14.371s6.5047 14.371 14.8877 14.371c3.614 0 7.228-1.55 9.396-3.945h.144v2.959h5.349v-39.873zm-63.5995 33.11c-1.7346 1.832-4.1919 2.959-6.9382 2.959-5.3482 0-9.54-4.368-9.54-9.44 0-5.213 4.1918-9.44 9.54-9.44 2.7463 0 5.2036 1.127 6.9382 2.959l2.6018-4.791c-2.6018-1.972-5.7818-3.24-9.54-3.24-8.3837 0-14.8882 6.199-14.8882 14.371s6.5045 14.371 14.8882 14.371c3.6136 0 6.9382-1.268 9.54-3.24zm-40.6173-20.852c-8.38365 0-14.8882 6.199-14.8882 14.371s6.50455 14.371 14.8882 14.371c8.3836 0 14.8882-6.199 14.8882-14.371-.1446-8.172-6.6491-14.371-14.8882-14.371zm0 4.931c5.3482 0 9.54 4.227 9.54 9.44 0 5.072-4.1918 9.44-9.54 9.44s-9.54002-4.368-9.54002-9.44c0-5.213 4.19182-9.44 9.54002-9.44z"/></g></svg>

<svg width="159" height="138" viewBox="0 0 159 138" fill="none" xmlns="http://www.w3.org/2000/svg">
<path d="M115.302 0C120.656 0 125.141 4.33387 124.997 9.82343V90H44.8389C39.3407 90 35 85.5217 35 80.1766V9.82343C35 4.33387 39.4854 0 44.8389 0H115.302ZM80.0719 13C62.9536 13 49 26.9677 49 44.1363C49 61.8868 62.8097 76 79.9281 76C97.0464 76 111 62.0323 111 44.7182C111 40.6443 109.705 35.261 109.705 36.5704C109.705 48.2102 99.0603 57.6674 87.6961 56.067C79.065 54.903 69.4269 46.9007 71.1531 34.2425C72.8793 21.7298 83.6682 16.7829 91.4362 17.8014C103.951 19.5473 106.541 29.1501 102.8 33.6605C99.0603 38.8984 91.2923 35.843 91.2923 29.8776C91.2923 26.5312 93.4501 25.0762 93.7378 24.7852C87.4083 22.8938 80.7912 27.9861 79.9281 34.679C78.9211 41.9538 84.2436 47.7737 90.2854 48.5012C101.362 50.1016 107.691 41.0808 107.691 33.0785C107.691 23.6212 97.7657 13 80.0719 13Z" fill="white"/>
<path d="M144.112 109.258C135.728 109.258 129.224 115.457 129.224 123.629C129.224 131.801 135.728 138 144.112 138C152.495 138 159 131.801 159 123.629C158.855 115.457 152.351 109.258 144.112 109.258ZM144.112 114.189C149.46 114.189 153.652 118.416 153.652 123.629C153.652 128.701 149.46 133.069 144.112 133.069C138.764 133.069 134.572 128.701 134.572 123.629C134.572 118.416 138.764 114.189 144.112 114.189ZM75.3082 133.069C69.96 133.069 65.7682 128.701 65.7682 123.629C65.7682 118.416 69.96 114.189 75.3082 114.189C80.6564 114.189 84.8482 118.416 84.8482 123.629C84.8482 128.701 80.6564 133.069 75.3082 133.069ZM84.8482 109.962V113.062H84.7036C82.3909 110.808 78.9218 109.258 75.1636 109.258C66.78 109.258 60.2755 115.457 60.2755 123.629C60.2755 131.801 66.78 138 75.1636 138C78.7773 138 82.3909 136.45 84.5591 134.055H84.7036V137.014H90.0518V109.962H84.8482ZM109.71 133.069C104.362 133.069 100.17 128.701 100.17 123.629C100.17 118.416 104.362 114.189 109.71 114.189C115.058 114.189 119.25 118.416 119.25 123.629C119.25 128.701 115.058 133.069 109.71 133.069ZM119.105 97V113.062H118.961C116.793 110.667 113.324 109.117 109.565 109.117C101.182 109.117 94.6773 115.316 94.6773 123.488C94.6773 131.66 101.182 137.859 109.565 137.859C113.179 137.859 116.793 136.309 118.961 133.914H119.105V136.873H124.454V97H119.105ZM55.5055 130.11C53.7709 131.942 51.3136 133.069 48.5673 133.069C43.2191 133.069 39.0273 128.701 39.0273 123.629C39.0273 118.416 43.2191 114.189 48.5673 114.189C51.3136 114.189 53.7709 115.316 55.5055 117.148L58.1073 112.357C55.5055 110.385 52.3255 109.117 48.5673 109.117C40.1836 109.117 33.6791 115.316 33.6791 123.488C33.6791 131.66 40.1836 137.859 48.5673 137.859C52.1809 137.859 55.5055 136.591 58.1073 134.619L55.5055 130.11ZM14.8882 109.258C6.50455 109.258 0 115.457 0 123.629C0 131.801 6.50455 138 14.8882 138C23.2718 138 29.7764 131.801 29.7764 123.629C29.6318 115.457 23.1273 109.258 14.8882 109.258ZM14.8882 114.189C20.2364 114.189 24.4282 118.416 24.4282 123.629C24.4282 128.701 20.2364 133.069 14.8882 133.069C9.54 133.069 5.34818 128.701 5.34818 123.629C5.34818 118.416 9.54 114.189 14.8882 114.189Z" fill="white"/>
</svg>
